X:1
T:Who Will My Disciple Be?
T:Who Will My Disciple Be?
T:George Coles Stebbins
T:Blanche Thornely, 1910
T:Public Domain Courtesy of the Cyber Hymnal™
C:George Coles Stebbins
Z:Public Domain
Z:Courtesy of the Cyber Hymnal™
%%score ( 1 2 ) ( 3 4 )
L:1/8
Q:1/4=93
M:6/8
K:Eb
V:1 treble 
V:2 treble 
V:3 bass 
V:4 bass 
V:1
 [EG]2 [EG] [GB]2 [GB] | ([Ac][GB])[^F=A] [GB]3 | [Ge]2 [GB] ([EB][DA])[EG] | [Ec]2 [EF] [DF]3 | %4
w: 1.~“Who will My dis-|ci- * ple be?”|’Tis the Mas- * ter’s|voice a- gain;|
w: 2.~“Who would My dis-|ci- * ple be?|He will My * com-|mand- ments keep;|
w: 3.~I would Thy dis-|ci- * ple be;|Cleanse me, Lord, * from|se- cret sin;|
w: 4.~I will Thy dis-|ci- * ple be;|Serve Thee, Mas- * ter,|love Thee, Friend;|
 [EG]>[E^F][EG] [DA]3 | [EB]>[E=A][EB] [Ec]3 | [Ec]2 [Ec] [EB]2 [Ge] | [EG][EG][DF] E3 || %8
w: “Fol- low thou Me!|Fol- low thou Me!|I will make you|fish- ers of men.”|
w: Lov- est thou Me?|Lov- est thou Me?|Feed My lambs and|fe- ed My sheep.”|
w: Cleanse me, I pray;|send me to- day—|Send me forth some|so- ul to win.|
w: Teach me, I pray;|I will o- bey,|Love and serve Thee|t- o the end.|
"^Refrain" [GB]2 [Gc] ([GB][EG])[Ge] | d6 | [DA]2 [DB] ([FA][DF])[Ac] | B6 | %12
w: ||||
w: I will fol- * low|Thee,|I will fol- * low|Thee;|
w: ||||
w: ||||
 [GB]>[^F=A][GB] [_Ac]3 | [Fd]>[Ec][Fd] [Ge]3 | [Ae]2 [Ec] [EB] [Ge]2 | [EG] [DF]2 E3 |] %16
w: ||||
w: I will o- bey,|help me, I pray;|I will fol- low,|fol- low Thee.|
w: ||||
w: ||||
V:2
 x6 | x6 | x6 | x6 | x6 | x6 | x6 | x3 E3 || x6 | (A2 F A3) | x6 | (G2 E G3) | x6 | x6 | x6 | %15
 x3 E3 |] %16
V:3
 [E,B,]2 [E,B,] [E,E]2 [E,E] | [E,E]2 [E,E] [E,E]3 | [E,B,]2 [E,E] B,2 [E,B,] | %3
w: ~ ~ ~ ~|~ ~ ~|~ ~ ~ ~|
 [A,,A,]2 [A,,C] [B,,B,]3 | [E,B,]>[E,=A,][E,B,] [F,B,]3 | [G,B,]>[^F,C][G,B,] A,3 | %6
w: ~ ~ ~|~ ~ ~ ~|~ ~ ~ ~|
 A,2 [A,C] [G,E]2 [E,B,] | [B,,B,][B,,B,][B,,B,] [E,G,]3 || [E,E]2 [E,E] (EB,)[E,B,] | %9
w: ~ ~ ~ ~|~ ~ ~ ~|~ ~ ~ * ~|
 [F,B,]2 [B,,B,] [F,B,]3 | [B,,B,]2 [B,,B,] (DB,)[B,,D] | [E,E]2 [B,,G,] [E,B,]3 | %12
w: fol- low Thee,|~ ~ ~ * ~|fol- low Thee;|
 [E,E]>[E,E][E,E] (E2 C) | [G,=B,]>[G,C][G,B,] C3 | [A,C]2 A, [G,B,] [E,B,]2 | %15
w: |||
 [B,,B,] [B,,A,]2 [E,G,]3 |] %16
w: |
V:4
 x6 | x6 | x3 (G,F,) x | x6 | x6 | x3 A,3 | A,2 x4 | x6 || x3 E,2 x | x6 | x3 B,,2 x | x6 | %12
 x3 F,3 | x3 C3 | x2 A, x3 | x6 |] %16

